X:16
I:linebreak $
T:The Quadro Pavin
C:Richard Allison (fl. 1592 - 1606), Morley's Consort Lessons, 1599 & 1611
K:G major
M:4/2
L:1/4
 |:"G"Bc | "G"d3/e/dc B2"D"A2 | "G"G/A/B/c/d"Em"e "Dm"d"Am Gsus4"c2B | "C"c3d e2"G"d2 | "C"c2G2 "Am"ABcA | "G"B3c d3/c/"D"A2 | "G"B2GA "Em"B2^c2 | 
"D"d6d2 | "D"A2"G"d2 "Am"c2"Dsus4"A2 | "G"B4 B2"Dsus4"A2 | "G"G/A/B/c/d"Em"e "Dm"d"Am Gsus4"c2B | "C"c3d e3d | "C"c2G2 "Am"ABcA | 
"G"B3c/d/ "C"e"D Em"d2^c | "D G"d3d "C"c2"Dsus4"A2 | "G"B2d2 "C"e2"D"d2 | "G"d3c B2 ::"D"A2 | "D"A4 A2A2 | "D"A3"G"B "A"^cd2c | 
"D"d3c/B/ "A"^cde2 | "D"d2A2 "G"B3B | "C"c3B A2"Em"G2 | "D"F2"G"G2 "Am Dsus4"A3A | "G"Bcd2 "Am"c2"D"A2 | "G"B6 :| 

